nord_icons/symbolic/devices/auth-fingerprint-symbolic.svg

<svg xmlns="http://www.w3.org/2000/svg" width="16" height="16" version="1.1">
 <path style="fill:#9aa2af" d="M 8.0722656,3.6467121e-4 A 6.996,6.9900418 0 0 0 4.5839844,0.89093552 1.0000856,0.99923392 0 1 0 5.5585938,2.63497 4.997,4.9927443 0 0 1 10.527344,2.6857482 4.996,4.9917452 0 0 1 13,6.9940799 1,0.99914835 0 0 0 13.002,7.0018899 1,0.99730355 0 0 0 13,7.0116599 V 8.009646 a 1,0.99730355 0 0 0 2,0 V 7.0116571 A 1,0.99730355 0 0 0 15,6.9940799 7.006,7.0000333 0 0 0 11.539062,0.96124374 6.993,6.9870444 0 0 0 8.0722656,3.6467121e-4 Z M 2.9550781,2.9943232 A 1,0.96465179 0 0 0 2.0566406,3.4610917 7.004,6.7564211 0 0 0 1.0058594,6.8788525 1,0.99914835 0 0 0 1,6.9413487 v 5.0582863 a 1,0.99914835 0 0 0 2,0 V 7.0292341 C 3,6.1282493 3.2628594,5.2455299 3.7558594,4.480561 A 1,0.96465179 0 0 0 2.9550781,2.9943232 Z M 8,3.0001822 c -2.198,0 -4,1.8026973 -4,3.9997568 a 1,1.0000271 0 0 0 0,0.00586 1,0.99730355 0 0 0 0,0.00586 v 0.9979861 a 1,0.99730355 0 0 0 2,0 V 7.0116571 A 1,0.99730355 0 0 0 6,6.999939 C 6,5.8839088 6.883,5.0000606 8,5.0000606 c 1.116,0 2,0.8838482 2,1.9998784 a 1,1.0000271 0 0 0 0,0.00586 1,0.99730355 0 0 0 0,0.00586 v 4.986023 c 0,0 0.0098,0.439748 0.175781,0.939396 a 4.56,4.5477042 0 0 0 1.117188,1.759659 1,0.99730355 0 1 0 1.414062,-1.410071 C 12.324031,12.905697 12.157219,12.55359 12.074219,12.306258 11.990219,12.05793 12,11.997682 12,11.997682 V 7.0116571 a 1,0.99730355 0 0 0 0,-0.011718 C 12,4.8028795 10.197,3.0001822 8,3.0001822 Z M 7.984375,5.9999998 A 1,0.99730355 0 0 0 7,7.0116571 v 4.9860249 c 0,0 -4.688e-4,0.593281 0.1445312,1.316326 0.145,0.724043 0.4124376,1.6467 1.1484376,2.380715 A 1,0.99730355 0 1 0 9.7070312,14.284652 C 9.4420312,14.021363 9.2104688,13.447946 9.1054688,12.92536 9.0004687,12.401775 9,11.997682 9,11.997682 V 7.0116571 A 1,0.99730355 0 0 0 7.984375,5.9999998 Z m -3,3.9899918 A 1,0.99730355 0 0 0 4,10.999696 v 2.992006 a 1,0.99730355 0 0 0 2,0 V 10.999696 A 1,0.99730355 0 0 0 4.984375,9.9899916 Z M 14,9.9997567 a 1,0.99993917 0 0 0 -1,0.9999393 1,0.99993917 0 0 0 1,0.999939 1,0.99993917 0 0 0 1,-0.999939 1,0.99993917 0 0 0 -1,-0.9999393 z"/>
</svg>

<?xml version="1.0" encoding="UTF-8"?>
<svg height="16px" viewBox="0 0 16 16" width="16px" xmlns="http://www.w3.org/2000/svg">
    <path d="m 8.074219 0 c -1.203125 -0.0117188 -2.40625 0.285156 -3.492188 0.890625 c -0.480469 0.269531 -0.652343 0.878906 -0.382812 1.359375 c 0.269531 0.484375 0.878906 0.65625 1.359375 0.386719 c 1.550781 -0.867188 3.4375 -0.847657 4.972656 0.050781 c 1.53125 0.898438 2.46875 2.535156 2.46875 4.3125 v 1 c 0 0.550781 0.449219 1 1 1 s 1 -0.449219 1 -1 v -1 c 0 -0.019531 0 -0.039062 -0.003906 -0.054688 c -0.019532 -2.460937 -1.332032 -4.738281 -3.457032 -5.984374 c -1.070312 -0.628907 -2.265624 -0.9492192 -3.46875 -0.960938 z m -5.199219 2.832031 c -0.066406 0 -0.132812 0.007813 -0.195312 0.023438 c -0.257813 0.058593 -0.484376 0.21875 -0.625 0.445312 c -0.6875 1.109375 -1.054688 2.390625 -1.054688 3.699219 v 5.0625 c 0 0.550781 0.449219 1 1 1 s 1 -0.449219 1 -1 v -5.0625 c 0 -0.933594 0.261719 -1.851562 0.753906 -2.644531 c 0.292969 -0.46875 0.148438 -1.082031 -0.320312 -1.375 c -0.167969 -0.105469 -0.363282 -0.15625 -0.558594 -0.148438 z m 5.125 0.167969 c -2.199219 0 -4 1.800781 -4 4 v 1 c 0 0.550781 0.449219 1 1 1 s 1 -0.449219 1 -1 v -1 c 0 -1.117188 0.882812 -2 2 -2 s 2 0.882812 2 2 v 5 s 0.007812 0.441406 0.175781 0.941406 s 0.5 1.148438 1.117188 1.765625 c 0.390625 0.390625 1.023437 0.390625 1.414062 0 s 0.390625 -1.023437 0 -1.414062 c -0.382812 -0.382813 -0.550781 -0.734375 -0.632812 -0.984375 s -0.074219 -0.308594 -0.074219 -0.308594 v -5 c 0 -2.199219 -1.800781 -4 -4 -4 z m 0 3 c -0.550781 0 -1 0.449219 -1 1 v 5 s 0 0.59375 0.144531 1.320312 c 0.144531 0.726563 0.414063 1.652344 1.148438 2.386719 c 0.390625 0.390625 1.023437 0.390625 1.414062 0 s 0.390625 -1.023437 0 -1.414062 c -0.265625 -0.265625 -0.496093 -0.839844 -0.601562 -1.363281 c -0.105469 -0.523438 -0.105469 -0.929688 -0.105469 -0.929688 v -5 c 0 -0.550781 -0.449219 -1 -1 -1 z m -3 4 c -0.550781 0 -1 0.449219 -1 1 v 3 c 0 0.550781 0.449219 1 1 1 s 1 -0.449219 1 -1 v -3 c 0 -0.550781 -0.449219 -1 -1 -1 z m 9 0 c -0.550781 0 -1 0.449219 -1 1 s 0.449219 1 1 1 s 1 -0.449219 1 -1 s -0.449219 -1 -1 -1 z m 0 0" fill="#2e3434"/>
</svg>
